!!!COM: Claude Debussy
!!!CNT: Francais
!!!TXO: Francais
!!!OPR: Cinq Poe2mes de Baudelaire
!!!ONM: No. 2
!!!OTL: Harmonie du Soir
!!!LYR: Charles Baudelaire
!!!ENC: Jacob Pegg
!!!YOR: Claude Debussy: Songs 1880-1904, Edited by Rita Benton
!!!YOR: New York: Dover publications, inc., 1981
!!!YOR: ISBN 0-486-24131-9
!!!ODT: 1889/
!!NB: Vocal melody and text only encoded.
!!NB: First instance of melodic material only encoded.
**kern	**silbe
*clef G2	*
*k[f#c#g#d#a#]	*
*M3/4	*
*MM[andante]	*
!! created: 6/30/03 10:43
!! last edited: 7/10/03 13:09
!! time (min) : input notes 21, words 10.  Check : notes 7, words 6.
!! total edit time: about 47 min.
=1	=1
2.r	.
=2	=2
4r	.
4r	.
8r	.
{8e	{Voi-
=3	=3
4.gn	-ci
8an	ve-
8b	-nir
8cc#	les
=4	=4
4dd#	temps
4cc#	ou\
4dd#	vi-
=5	=5
4dd#	-brant
4cc#	sur
4ee	sa
=6	=6
2ee	ti-
4gn}	-ge,}
=7	=7
{8f#	{Cha-
8dd#	-que
4cc#	fleur
8b	s'e/-
8e#	-va-
=8	=8
8g#	-pore
8f#	ain-
8b	-si
8cc#	qu'un
8dd#	en-
8ff#	-cen-
=9	=9
[2.dd#	-soir;
=10	=10
4dd#]}	|}
4r	.
{4g#	{Les
=11	=11
4.ee	sons
8ee	et
8dd#	les
8cc#	par-
=12	=12
8cc#	-fums
8b	tour-
8f#	-nent
8d#	dans
8e	l'air
8f#	du
=13	=13
2gn}	soir,}
4r	.
=14	=14
4r	.
12r	.
{(12f#	{Val-
12f#)	-se
(12f#	me/-
12f#	-lan-
12f#)	-co-
=15	=15
8cc#	-li-
8b	-que et
8f#	lan-
8dn	-gou-
8e	-reux
8f#	ver-
=16	=16
*M2/4	*
[4f#	-ti-
8f#]}	-ge}
8r	.
=17	=17
*M3/4	*
12r	.
{12f#	{Cha-
12dd#	-que
4cc#	fleur
8b	s'e/-
8e#	-va-
=18	=18
8g#	-pore
8f#	ain-
8b	-si
8cc#	qu'un
8dd#	en-
8ff#	-cen-
=19	=19
2dd#}	-soir,}
4r	.
=20	=20
4r	.
{(4dd#	{Le
8cc#	vi-
8b	-o-
=21	=21
8a#	-lon
8g#	fre/-
4b	-mit
8cc#	com-
8ddn)	-me un
=22	=22
*M2/4	*
(8dd#	coeur
8cc#	|
8a#	qu'on
8b	af-
=23	=23
4.b#	-fli-
8f##)}	-ge,}
=24	=24
*M3/4	*
8r	.
{4g#	{Val-
8g#	-se
(12g#	me/-
12g#	-lan-
12g#)	-co-
=25	=25
(8dd#	-li-
8cc#	-que et
8g#	lan-
8e	-gou-
8f#	-reux
8g#)	ver-
=26	=26
[2an	-ti-
8an]}	-ge,}
8r	.
=27	=27
4r	.
4r	.
8r	.
{8dn	{Le
=28	=28
*k[]	*
4.d	ciel
8f#	est
8a	triste
8f#	et
=29	=29
4d	beau
4f#	comme
4a	un
=30	=30
4cc	grand
4g	re-
4e	-po-
=31	=31
2e}	-soir;}
4r	.
=32	=32
4r	.
{4cc	{Le
8b-	vi-
8a-	-o-
=33	=33
8g	-lon
8f	fre/-
4a-	-mit
8b-	comme
8bn	un
=34	=34
(4.cc	coeur
8b-)	|
8g	qu'on
8a-	af-
=35	=35
2ffn	-fli-
4ee}	-ge,}
=36	=36
4r	.
{4cc#	{Un
4b	coeur
=37	=37
4b	ten-
4a}	-dre,}
8r	.
{8g#	{qui
=38	=38
8gn	hait
8gn	le
8gn	ne/-
8gn	-ant
8g#	vas-
8b	-te et
=39	=39
4gn}	noir!}
4r	.
8r	.
{8B	{Le
=40	=40
4.c	ciel
8e	est
8g	triste
8e	et
=41	=41
4c	beau
4e	comme
4g	un
=42	=42
4b-	grand
4f	re-
4d	-po-
=43	=43
2d}	-soir,}
4r	.
=44	=44
2.r	.
=45	=45
4r	.
{8f#	{Le
8f#	so-
12f#	-leil
12g#	s'est
12a#	no-
=46	=46
4a#	-ye/
8a#	dans
8a#	son
12b#	sang
12b#	qui
12b#	se
=47	=47
8b#	fi-
4.a#}	-ge…}
4r	.
=48	=48
2.r	.
=49	=49
*k[f#c#g#d#]	*
4r	.
{4dd#	{Un
4cc#	coeur
=50	=50
4cc#	ten-
4b}	-dre,}
8r	.
{8a#	{qui
=51	=51
8an	hait
8an	le
8an	ne/-
8an	-ant
8a#	vaste
8cc#	et
=52	=52
2an}	noir,}
{(8g#	{Du
8f#	pas-
=53	=53
4.ddn	-se/
8b	|
8a#	lu-
8cc#	-mi-
=54	=54
2ddn)	-neux
(4b	re-
=55	=55
4.ff#	-cueil-
8ee	-le
8cc#	tout
8a	ves-
=56	=56
2g#	-ti-
[4dn)	-ge.
=57	=57
4dn]}	|}
4r	.
4r	.
=58	=58
*k[f#c#g#d#a#]	*
2.r	.
=59	=59
4r	.
{8B	{Le
8B	so-
12B	-leil
12c#	s'est
12d#	no-
=60	=60
4d#	-ye/
8d#	dans
8d#	son
12e#	sang
12e#	qui
12e#	se
=61	=61
8e#	fi-
4.d#}	-ge}
4r	.
=62	=62
2.r	.
=63	=63
4r	.
{4dn	{Ton
8e#	sou-
8g#	-ve-
=64	=64
4cc#	-nir
4ddn	en
4b	moi
=65	=65
2ffn}	luit}
{4ffn	{comme
=66	=66
(4ffn	un
4ee	os-
4ffn	-ten-
=67	=67
[2.ff#)	-soir.
=68	=68
2ff#]}	|}
4r	.
*-	*-
